static/img/device/component-wall-bracket-dm20.svg

<svg xmlns="http://www.w3.org/2000/svg" width="277" height="71" fill="none" viewBox="0 0 277 71"><g clip-path="url(#a)"><path fill="#fff" d="M276.75 0H0v70.08h276.75z"/><path stroke="#000" stroke-linecap="round" stroke-linejoin="round" stroke-width=".5" d="M265.01 52.27H11.74v6.08h253.27zM125.55 31.2h-7.24M118.31 38.38h7.24M118.31 31.2l-.45.1c-2.05.93-2.1 6 0 7.02l.45.05M125.55 38.38l.45-.05c2.1-.95 2.1-6.11 0-7.02l-.45-.1M142.68 31.2h-7.24M135.44 38.38h7.24M135.44 31.2l-.45.1c-2.05.93-2.1 6 0 7.02l.45.05M142.68 38.38l.45-.05c2.1-.95 2.1-6.11 0-7.02l-.45-.1M158.58 31.23h-7.25M151.33 38.4h7.25M151.33 31.23l-.45.1c-2.05.93-2.1 6 0 7.02l.45.05M158.58 38.4l.45-.05c2.1-.95 2.1-6.11 0-7.02l-.45-.1M175.71 31.23h-7.25M168.46 38.4h7.25M168.46 31.23l-.45.1c-2.05.93-2.1 6 0 7.02l.45.05M175.71 38.4l.45-.05c2.1-.95 2.1-6.11 0-7.02l-.45-.1M191 31.2h-7.25M183.75 38.38H191M183.75 31.2l-.45.1c-2.05.93-2.1 6 0 7.02l.45.05M191 38.38l.45-.05c2.1-.95 2.1-6.11 0-7.02l-.45-.1M208.13 31.2h-7.25M200.88 38.38h7.25M200.88 31.2l-.45.1c-2.05.93-2.1 6 0 7.02l.45.05M208.13 38.38l.45-.05c2.1-.95 2.1-6.11 0-7.02l-.45-.1M224.55 31.2h-7.24M217.31 38.38h7.24M217.31 31.2l-.45.1c-2.05.93-2.1 6 0 7.02l.45.05M224.55 38.38l.45-.05c2.1-.95 2.1-6.11 0-7.02l-.45-.1M241.69 31.2h-7.25M234.44 38.38h7.25M234.44 31.2l-.45.1c-2.05.93-2.1 6 0 7.02l.45.05M241.69 38.38l.45-.05c2.1-.95 2.1-6.11 0-7.02l-.45-.1M257.16 31.2h-7.24M249.92 38.38h7.24M249.92 31.2l-.45.1c-2.05.93-2.1 6 0 7.02l.45.05M257.16 38.38l.45-.05c2.1-.95 2.1-6.11 0-7.02l-.45-.1M91.95 31.48h-7.24M84.71 38.65h7.24M84.71 31.48l-.45.1c-2.05.93-2.1 6 0 7.02l.45.05M91.95 38.65l.45-.05c2.1-.95 2.1-6.11 0-7.02l-.45-.1M109.08 31.48h-7.24M101.84 38.65h7.24M101.84 31.48l-.45.1c-2.05.93-2.1 6 0 7.02l.45.05M109.08 38.65l.45-.05c2.1-.95 2.1-6.11 0-7.02l-.45-.1M58.48 31.2h-7.25M51.23 38.38h7.25M51.23 31.2l-.45.1c-2.05.93-2.1 6 0 7.02l.45.05M58.48 38.38l.45-.05c2.1-.95 2.1-6.11 0-7.02l-.45-.1M75.61 31.2h-7.24M68.37 38.38h7.24M68.37 31.2l-.45.1c-2.05.93-2.1 6 0 7.02l.45.05M75.61 38.38l.45-.05c2.1-.95 2.1-6.11 0-7.02l-.45-.1M25.45 31.48h-7.24M18.21 38.65h7.24M18.21 31.48l-.45.1c-2.05.93-2.1 6 0 7.02l.45.05M25.45 38.65l.45-.05c2.1-.95 2.1-6.11 0-7.02l-.45-.1M42.59 31.48h-7.25M35.34 38.65h7.25M35.34 31.48l-.45.1c-2.05.93-2.1 6 0 7.02l.45.05M42.59 38.65l.45-.05c2.1-.95 2.1-6.11 0-7.02l-.45-.1"/><path stroke="#000" stroke-linecap="round" stroke-linejoin="round" d="M265.01 11.77H11.74v46.57h253.27z"/><path stroke="#000" stroke-linecap="round" stroke-linejoin="round" stroke-width=".5" d="M265.01 11.54H11.74v6.08h253.27zM265.01 25.4H11.74v2.66h253.27zM265.01 41.51H11.74v2.66h253.27z"/></g><defs><clipPath id="a"><path fill="#fff" d="M0 0h276.75v70.08H0z"/></clipPath></defs></svg>

<svg width="277" height="71" viewBox="0 0 277 71" fill="none" xmlns="http://www.w3.org/2000/svg">
<g clip-path="url(#clip0_623_97773)">
<path d="M276.75 0H0V70.08H276.75V0Z" fill="white"/>
<path d="M265.01 52.27H11.74V58.35H265.01V52.27Z" stroke="black" stroke-width="0.5" stroke-linecap="round" stroke-linejoin="round"/>
<path d="M125.55 31.2H118.31" stroke="black" stroke-width="0.5" stroke-linecap="round" stroke-linejoin="round"/>
<path d="M118.31 38.38H125.55" stroke="black" stroke-width="0.5" stroke-linecap="round" stroke-linejoin="round"/>
<path d="M118.31 31.2L117.86 31.3C115.81 32.23 115.76 37.3 117.86 38.32L118.31 38.37" stroke="black" stroke-width="0.5" stroke-linecap="round" stroke-linejoin="round"/>
<path d="M125.55 38.38L126 38.33C128.1 37.38 128.1 32.22 126 31.31L125.55 31.21" stroke="black" stroke-width="0.5" stroke-linecap="round" stroke-linejoin="round"/>
<path d="M142.68 31.2H135.44" stroke="black" stroke-width="0.5" stroke-linecap="round" stroke-linejoin="round"/>
<path d="M135.44 38.38H142.68" stroke="black" stroke-width="0.5" stroke-linecap="round" stroke-linejoin="round"/>
<path d="M135.44 31.2L134.99 31.3C132.94 32.23 132.89 37.3 134.99 38.32L135.44 38.37" stroke="black" stroke-width="0.5" stroke-linecap="round" stroke-linejoin="round"/>
<path d="M142.68 38.38L143.13 38.33C145.23 37.38 145.23 32.22 143.13 31.31L142.68 31.21" stroke="black" stroke-width="0.5" stroke-linecap="round" stroke-linejoin="round"/>
<path d="M158.58 31.23H151.33" stroke="black" stroke-width="0.5" stroke-linecap="round" stroke-linejoin="round"/>
<path d="M151.33 38.4H158.58" stroke="black" stroke-width="0.5" stroke-linecap="round" stroke-linejoin="round"/>
<path d="M151.33 31.23L150.88 31.33C148.83 32.26 148.78 37.33 150.88 38.35L151.33 38.4" stroke="black" stroke-width="0.5" stroke-linecap="round" stroke-linejoin="round"/>
<path d="M158.58 38.4L159.03 38.35C161.13 37.4 161.13 32.24 159.03 31.33L158.58 31.23" stroke="black" stroke-width="0.5" stroke-linecap="round" stroke-linejoin="round"/>
<path d="M175.71 31.23H168.46" stroke="black" stroke-width="0.5" stroke-linecap="round" stroke-linejoin="round"/>
<path d="M168.46 38.4H175.71" stroke="black" stroke-width="0.5" stroke-linecap="round" stroke-linejoin="round"/>
<path d="M168.46 31.23L168.01 31.33C165.96 32.26 165.91 37.33 168.01 38.35L168.46 38.4" stroke="black" stroke-width="0.5" stroke-linecap="round" stroke-linejoin="round"/>
<path d="M175.71 38.4L176.16 38.35C178.26 37.4 178.26 32.24 176.16 31.33L175.71 31.23" stroke="black" stroke-width="0.5" stroke-linecap="round" stroke-linejoin="round"/>
<path d="M191 31.2H183.75" stroke="black" stroke-width="0.5" stroke-linecap="round" stroke-linejoin="round"/>
<path d="M183.75 38.38H191" stroke="black" stroke-width="0.5" stroke-linecap="round" stroke-linejoin="round"/>
<path d="M183.75 31.2L183.3 31.3C181.25 32.23 181.2 37.3 183.3 38.32L183.75 38.37" stroke="black" stroke-width="0.5" stroke-linecap="round" stroke-linejoin="round"/>
<path d="M191 38.38L191.45 38.33C193.55 37.38 193.55 32.22 191.45 31.31L191 31.21" stroke="black" stroke-width="0.5" stroke-linecap="round" stroke-linejoin="round"/>
<path d="M208.13 31.2H200.88" stroke="black" stroke-width="0.5" stroke-linecap="round" stroke-linejoin="round"/>
<path d="M200.88 38.38H208.13" stroke="black" stroke-width="0.5" stroke-linecap="round" stroke-linejoin="round"/>
<path d="M200.88 31.2L200.43 31.3C198.38 32.23 198.33 37.3 200.43 38.32L200.88 38.37" stroke="black" stroke-width="0.5" stroke-linecap="round" stroke-linejoin="round"/>
<path d="M208.13 38.38L208.58 38.33C210.68 37.38 210.68 32.22 208.58 31.31L208.13 31.21" stroke="black" stroke-width="0.5" stroke-linecap="round" stroke-linejoin="round"/>
<path d="M224.55 31.2H217.31" stroke="black" stroke-width="0.5" stroke-linecap="round" stroke-linejoin="round"/>
<path d="M217.31 38.38H224.55" stroke="black" stroke-width="0.5" stroke-linecap="round" stroke-linejoin="round"/>
<path d="M217.31 31.2L216.86 31.3C214.81 32.23 214.76 37.3 216.86 38.32L217.31 38.37" stroke="black" stroke-width="0.5" stroke-linecap="round" stroke-linejoin="round"/>
<path d="M224.55 38.38L225 38.33C227.1 37.38 227.1 32.22 225 31.31L224.55 31.21" stroke="black" stroke-width="0.5" stroke-linecap="round" stroke-linejoin="round"/>
<path d="M241.69 31.2H234.44" stroke="black" stroke-width="0.5" stroke-linecap="round" stroke-linejoin="round"/>
<path d="M234.44 38.38H241.69" stroke="black" stroke-width="0.5" stroke-linecap="round" stroke-linejoin="round"/>
<path d="M234.44 31.2L233.99 31.3C231.94 32.23 231.89 37.3 233.99 38.32L234.44 38.37" stroke="black" stroke-width="0.5" stroke-linecap="round" stroke-linejoin="round"/>
<path d="M241.69 38.38L242.14 38.33C244.24 37.38 244.24 32.22 242.14 31.31L241.69 31.21" stroke="black" stroke-width="0.5" stroke-linecap="round" stroke-linejoin="round"/>
<path d="M257.16 31.2H249.92" stroke="black" stroke-width="0.5" stroke-linecap="round" stroke-linejoin="round"/>
<path d="M249.92 38.38H257.16" stroke="black" stroke-width="0.5" stroke-linecap="round" stroke-linejoin="round"/>
<path d="M249.92 31.2L249.47 31.3C247.42 32.23 247.37 37.3 249.47 38.32L249.92 38.37" stroke="black" stroke-width="0.5" stroke-linecap="round" stroke-linejoin="round"/>
<path d="M257.16 38.38L257.61 38.33C259.71 37.38 259.71 32.22 257.61 31.31L257.16 31.21" stroke="black" stroke-width="0.5" stroke-linecap="round" stroke-linejoin="round"/>
<path d="M91.95 31.48H84.71" stroke="black" stroke-width="0.5" stroke-linecap="round" stroke-linejoin="round"/>
<path d="M84.71 38.65H91.95" stroke="black" stroke-width="0.5" stroke-linecap="round" stroke-linejoin="round"/>
<path d="M84.7099 31.48L84.2599 31.58C82.2099 32.51 82.1599 37.58 84.2599 38.6L84.7099 38.65" stroke="black" stroke-width="0.5" stroke-linecap="round" stroke-linejoin="round"/>
<path d="M91.95 38.65L92.4 38.6C94.5 37.65 94.5 32.49 92.4 31.58L91.95 31.48" stroke="black" stroke-width="0.5" stroke-linecap="round" stroke-linejoin="round"/>
<path d="M109.08 31.48H101.84" stroke="black" stroke-width="0.5" stroke-linecap="round" stroke-linejoin="round"/>
<path d="M101.84 38.65H109.08" stroke="black" stroke-width="0.5" stroke-linecap="round" stroke-linejoin="round"/>
<path d="M101.84 31.48L101.39 31.58C99.34 32.51 99.29 37.58 101.39 38.6L101.84 38.65" stroke="black" stroke-width="0.5" stroke-linecap="round" stroke-linejoin="round"/>
<path d="M109.08 38.65L109.53 38.6C111.63 37.65 111.63 32.49 109.53 31.58L109.08 31.48" stroke="black" stroke-width="0.5" stroke-linecap="round" stroke-linejoin="round"/>
<path d="M58.48 31.2H51.23" stroke="black" stroke-width="0.5" stroke-linecap="round" stroke-linejoin="round"/>
<path d="M51.23 38.38H58.48" stroke="black" stroke-width="0.5" stroke-linecap="round" stroke-linejoin="round"/>
<path d="M51.2299 31.2L50.7799 31.3C48.7299 32.23 48.6799 37.3 50.7799 38.32L51.2299 38.37" stroke="black" stroke-width="0.5" stroke-linecap="round" stroke-linejoin="round"/>
<path d="M58.48 38.38L58.93 38.33C61.03 37.38 61.03 32.22 58.93 31.31L58.48 31.21" stroke="black" stroke-width="0.5" stroke-linecap="round" stroke-linejoin="round"/>
<path d="M75.6101 31.2H68.3701" stroke="black" stroke-width="0.5" stroke-linecap="round" stroke-linejoin="round"/>
<path d="M68.3701 38.38H75.6101" stroke="black" stroke-width="0.5" stroke-linecap="round" stroke-linejoin="round"/>
<path d="M68.3701 31.2L67.9201 31.3C65.8701 32.23 65.8201 37.3 67.9201 38.32L68.3701 38.37" stroke="black" stroke-width="0.5" stroke-linecap="round" stroke-linejoin="round"/>
<path d="M75.6101 38.38L76.0601 38.33C78.1601 37.38 78.1601 32.22 76.0601 31.31L75.6101 31.21" stroke="black" stroke-width="0.5" stroke-linecap="round" stroke-linejoin="round"/>
<path d="M25.45 31.48H18.21" stroke="black" stroke-width="0.5" stroke-linecap="round" stroke-linejoin="round"/>
<path d="M18.21 38.65H25.45" stroke="black" stroke-width="0.5" stroke-linecap="round" stroke-linejoin="round"/>
<path d="M18.2099 31.48L17.7599 31.58C15.7099 32.51 15.6599 37.58 17.7599 38.6L18.2099 38.65" stroke="black" stroke-width="0.5" stroke-linecap="round" stroke-linejoin="round"/>
<path d="M25.45 38.65L25.9 38.6C27.9999 37.65 27.9999 32.49 25.9 31.58L25.45 31.48" stroke="black" stroke-width="0.5" stroke-linecap="round" stroke-linejoin="round"/>
<path d="M42.5901 31.48H35.3401" stroke="black" stroke-width="0.5" stroke-linecap="round" stroke-linejoin="round"/>
<path d="M35.3401 38.65H42.5901" stroke="black" stroke-width="0.5" stroke-linecap="round" stroke-linejoin="round"/>
<path d="M35.34 31.48L34.89 31.58C32.84 32.51 32.79 37.58 34.89 38.6L35.34 38.65" stroke="black" stroke-width="0.5" stroke-linecap="round" stroke-linejoin="round"/>
<path d="M42.5901 38.65L43.0401 38.6C45.1401 37.65 45.1401 32.49 43.0401 31.58L42.5901 31.48" stroke="black" stroke-width="0.5" stroke-linecap="round" stroke-linejoin="round"/>
<path d="M265.01 11.77H11.74V58.34H265.01V11.77Z" stroke="black" stroke-linecap="round" stroke-linejoin="round"/>
<path d="M265.01 11.54H11.74V17.62H265.01V11.54Z" stroke="black" stroke-width="0.5" stroke-linecap="round" stroke-linejoin="round"/>
<path d="M265.01 25.4H11.74V28.06H265.01V25.4Z" stroke="black" stroke-width="0.5" stroke-linecap="round" stroke-linejoin="round"/>
<path d="M265.01 41.51H11.74V44.17H265.01V41.51Z" stroke="black" stroke-width="0.5" stroke-linecap="round" stroke-linejoin="round"/>
</g>
<defs>
<clipPath id="clip0_623_97773">
<rect width="276.75" height="70.08" fill="white"/>
</clipPath>
</defs>
</svg>
